; generated by PrusaSlicer 2.9.0 on 2025-01-15 at 10:38:33 UTC


;
;

;
;

;
;

;
;

;
;
; 

; external perimeters extrusion width = 0.45mm
; perimeters extrusion width = 0.45mm
; infill extrusion width = 0.45mm
; solid infill extrusion width = 0.45mm
; top infill extrusion width = 0.42mm
; first layer extrusion width = 0.50mm

M73 P0 R53
M73 Q0 S57
M201 X4000 Y4000 Z200 E2500 ; sets maximum accelerations, mm/sec^2
M203 X300 Y300 Z40 E100 ; sets maximum feedrates, mm / sec
M204 P4000 R1200 T4000 ; sets acceleration (P, T) and retract acceleration (R), mm/sec^2
M205 X8.00 Y8.00 Z2.00 E10.00 ; sets the jerk limits, mm/sec
M205 S0 T0 ; sets the minimum extruding and travel feed rate, mm/sec

M486 S0
M486 ASears Craftsman 12 Inch Wood Lathe-Cross Slide MountCross Sl...
M486 S-1

;TYPE:Custom
M17 ; enable steppers
M862.1 P0.4 A0 F0 ; nozzle check
M862.3 P "MK4S" ; printer model check
M862.5 P2 ; g-code level check
M862.6 P"Input shaper" ; FW feature check
M115 U6.1.3+7898

M555 X19.225 Y53.65 W211.55 H98.7

G90 ; use absolute coordinates
M83 ; extruder relative mode

M140 S60 ; set bed temp
M104 T0 S170 ; set extruder temp for bed leveling
M109 T0 R170 ; wait for temp

M84 E ; turn off E motor

G28 ; home all without mesh bed level

G1 X42 Y-4 Z5 F4800

M302 S160 ; lower cold extrusion limit to 160C


G1 E-2 F2400 ; retraction


M84 E ; turn off E motor

G29 P9 X10 Y-4 W32 H4

M106 S100

G0 Z40 F10000

M190 S60 ; wait for bed temp

M107

;
; MBL
;
M84 E ; turn off E motor
G29 P1 ; invalidate mbl & probe print area
G29 P1 X0 Y0 W50 H20 C ; probe near purge place
G29 P3.2 ; interpolate mbl probes
G29 P3.13 ; extrapolate mbl outside probe area
G29 A ; activate mbl

; prepare for purge
M104 S230
G0 X0 Y-4 Z15 F4800 ; move away and ready for the purge
M109 S230

G92 E0
M569 S0 E ; set spreadcycle mode for extruder

;
; Extrude purge line
;
G92 E0 ; reset extruder position
G1 E2 F2400 ; deretraction after the initial one before nozzle cleaning
G0 E7 X15 Z0.2 F500 ; purge
G0 X25 E4 F500 ; purge
G0 X35 E4 F650 ; purge
G0 X45 E4 F800 ; purge
G0 X48 Z0.05 F8000 ; wipe, move close to the bed
G0 X51 Z0.2 F8000 ; wipe, move quickly away from the bed

G92 E0
M221 S100 ; set flow to 100%
G21 ; set units to millimeters
G90 ; use absolute coordinates
M83 ; use relative distances for extrusion
M900 K0.05 ; Filament gcode


M572 S0.036 ; Filament gcode


M142 S36 ; set heatbreak target temp
M107
;LAYER_CHANGE
;Z:0.2
;HEIGHT:0.2
G1 E-.7 F2100
G1 Z.8 F720
M486 S0
G1 X189.174 Y66.939 F18000
G1 Z.2 F720
G1 E.7 F1500
M204 P500
;TYPE:Perimeter
;WIDTH:0.499999
G1 F2400
G1 X189.197 Y66.954 E.00104
G1 X189.34 Y67.179 E.01013
G1 X189.387 Y67.445 E.01027
G1 X189.199 Y75.368 E.30121
G1 X189.866 Y75.528 E.02607
G3 X197.865 Y78.994 I-7.639 J28.598 E.33253
G3 X206.294 Y86.949 I-15.648 J25.02 E.44338
G3 X210.635 Y96.132 I-24.131 J17.028 E.38797
G3 X209.61 Y114.734 I-28.406 J7.763 E.72044
G3 X200.002 Y127.338 I-27.382 J-10.908 E.60984
G3 X192.342 Y131.495 I-17.801 J-23.666 E.33244
G3 X182.342 Y133.257 I-10.049 J-27.776 E.38784
G3 X173.716 Y131.966 I.02 J-29.606 E.3327
G3 X164.671 Y127.355 I8.693 J-28.229 E.38778
G3 X157.735 Y119.936 I17.785 J-23.578 E.38793
G3 X155.246 Y115.219 I25.979 J-16.72 E.20296
G3 X154.275 Y112.535 I23.601 J-10.056 E.10854
G3 X152.977 Y104.076 I27.62 J-8.568 E.32646
G1 X152.973 Y103.364 E.02706
G3 X153.105 Y101.164 I31.672 J.791 E.08378
G3 X153.835 Y96.856 I27.802 J2.496 E.16624
G3 X155.182 Y92.739 I27.107 J6.591 E.1648
G1 X155.468 Y92.045 E.02853
G3 X156.776 Y89.44 I29.304 J13.085 E.11082
G3 X159.206 Y85.807 I26.563 J15.138 E.16626
G3 X165.539 Y79.816 I23.288 J18.272 E.33254
G3 X169.537 Y77.48 I16.784 J24.138 E.17617
G3 X175.451 Y75.368 I12.481 J25.616 E.23916
G1 X175.263 Y67.445 E.30121
G1 X175.31 Y67.179 E.01027
G1 X175.453 Y66.954 E.01013
G1 X175.721 Y66.782 E.0121
G1 X175.948 Y66.743 E.00875
G1 X188.702 Y66.743 E.48473
G1 X188.929 Y66.782 E.00875
M73 Q0 S56
G1 X189.123 Y66.907 E.00877
M204 P4000
M204 T4000
G1 X189.123 Y66.907 F18000
G1 X188.831 Y67.255
M204 P500
;TYPE:External perimeter
G1 F2400
G1 X188.867 Y67.27 E.00148
G1 X188.93 Y67.434 E.00668
G1 X188.733 Y75.726 E.31524
G3 X191.137 Y76.376 I-6.072 J27.231 E.09468
G3 X198.831 Y80.178 I-8.923 J27.748 E.32736
G3 X204.157 Y84.963 I-16.773 J24.02 E.2728
G3 X208.142 Y90.911 I-22.144 J19.146 E.27279
G3 X210.818 Y99.066 I-26.061 J13.069 E.32739
G3 X210.106 Y111.863 I-28.694 J4.823 E.49115
G3 X201.924 Y125.139 I-27.91 J-8.043 E.60006
G3 X189.434 Y131.912 I-19.686 J-21.4 E.54552
G3 X182.331 Y132.8 I-7.154 J-28.375 E.27274
G3 X169.835 Y129.962 I.033 J-29.074 E.49105
G3 X162.733 Y125.145 I12.634 J-26.275 E.32734
G3 X157.358 Y118.455 I19.791 J-21.405 E.32735
G3 X155.469 Y114.576 I30.576 J-17.285 E.16408
G3 X153.43 Y103.361 I27.091 J-10.719 E.43604
G3 X154.105 Y97.668 I30.188 J.693 E.21821
G3 X155.604 Y92.913 I28.225 J6.287 E.18972
G1 X155.89 Y92.22 E.02849
G3 X157.179 Y89.655 I28.928 J12.934 E.10914
G3 X159.573 Y86.08 I26.179 J14.936 E.16366
G3 X164.652 Y81.033 I23.008 J18.078 E.27282
G3 X173.502 Y76.38 I17.773 J23.057 E.3819
G3 X175.917 Y75.726 I8.488 J26.58 E.09512
G1 X175.72 Y67.434 E.31524
G1 X175.783 Y67.27 E.00668
G1 X175.948 Y67.2 E.00681
G1 X188.702 Y67.2 E.48473
G1 X188.776 Y67.232 E.00306
M204 P4000
G1 X188.92 Y67.605 F18000
G1 E-.7 F2100
G1 X167.706 Y83.518 Z.663 F18000
G1 X164.564 Y85.874 Z.723
G1 X161.422 Y88.231 Z.766
G1 X155.139 Y92.944 Z.8
G1 X134.773 Y108.221
G1 Z.2 F720
G1 E.7 F1500
M204 P500
;TYPE:Perimeter
G1 F2400
G1 X134.613 Y108.102 E.00758
G1 X134.334 Y108.043 E.01084
G1 X20.132 Y108.043 E4.34039
G1 X20.132 Y58.557 E1.88078
G1 X229.868 Y58.557 E7.97128
G1 X229.868 Y73.616 E.57234
G1 X229.868 Y103.889 E1.15056
G1 X229.81 Y106.233 E.08911
G1 X229.639 Y108.56 E.08868
G1 X229.353 Y110.876 E.08869
G1 X228.954 Y113.175 E.08868
G1 X228.443 Y115.452 E.08869
G1 X227.821 Y117.701 E.08868
G1 X227.089 Y119.917 E.0887
G1 X226.249 Y122.094 E.08869
G1 X225.303 Y124.227 E.08868
G1 X224.254 Y126.311 E.08867
G1 X223.104 Y128.342 E.08871
G1 X221.855 Y130.313 E.08868
G1 X220.512 Y132.221 E.08868
G1 X219.076 Y134.061 E.08871
G1 X217.552 Y135.828 E.08868
G1 X215.943 Y137.518 E.08869
G1 X214.253 Y139.127 E.08869
G1 X212.486 Y140.651 E.08868
G1 X210.646 Y142.087 E.08871
G1 X208.738 Y143.43 E.08868
G1 X206.767 Y144.679 E.08868
G1 X204.736 Y145.829 E.08871
G1 X202.652 Y146.878 E.08867
G1 X200.519 Y147.824 E.08868
G1 X198.342 Y148.664 E.08869
G1 X196.126 Y149.396 E.0887
G1 X193.877 Y150.018 E.08868
G1 X191.6 Y150.529 E.08869
G1 X189.301 Y150.928 E.08868
G1 X186.985 Y151.214 E.08869
G1 X184.658 Y151.385 E.08868
G1 X182.325 Y151.443 E.0887
G1 X180.002 Y151.386 E.08832
G1 X177.685 Y151.216 E.0883
G1 X175.378 Y150.932 E.08834
M73 P1 R53
G1 X173.089 Y150.537 E.08828
G1 X170.821 Y150.03 E.08833
G1 X168.581 Y149.413 E.0883
G1 X166.374 Y148.687 E.0883
G1 X164.204 Y147.854 E.08834
G1 X162.079 Y146.916 E.08828
G1 X160.001 Y145.875 E.08833
G1 X158.013 Y144.755 E.08672
G1 X156.01 Y143.496 E.08992
G1 X154.107 Y142.163 E.0883
G1 X152.271 Y140.739 E.08831
G1 X150.507 Y139.226 E.08833
G1 X148.819 Y137.63 E.08829
G1 X147.211 Y135.952 E.08833
G1 X145.687 Y134.198 E.08831
G1 X144.251 Y132.372 E.08829
G1 X142.905 Y130.478 E.08831
G1 X141.654 Y128.52 E.08831
G1 X140.499 Y126.503 E.08834
G1 X139.445 Y124.433 E.08828
G1 X138.493 Y122.313 E.08832
G1 X137.646 Y120.149 E.08832
G1 X136.905 Y117.947 E.0883
M73 Q1 S56
G1 X136.273 Y115.711 E.08831
G1 X135.751 Y113.447 E.0883
G1 X135.34 Y111.16 E.08831
G1 X134.993 Y108.542 E.10037
G1 X134.85 Y108.278 E.01141
G1 X134.821 Y108.256 E.00138
M204 P4000
G1 X134.821 Y108.256 F18000
G1 X134.461 Y108.554
M204 P500
;TYPE:External perimeter
G1 F2400
G1 X134.334 Y108.5 E.00525
G1 X19.675 Y108.5 E4.35776
G1 X19.675 Y58.1 E1.91552
G1 X230.325 Y58.1 E8.00602
G1 X230.325 Y73.616 E.58971
G1 X230.325 Y103.894 E1.15075
G1 X230.267 Y106.255 E.08976
G1 X230.094 Y108.605 E.08956
G1 X229.805 Y110.943 E.08953
G1 X229.403 Y113.264 E.08953
G1 X228.886 Y115.563 E.08956
G1 X228.258 Y117.834 E.08955
G1 X227.519 Y120.071 E.08954
G1 X226.671 Y122.269 E.08954
G1 X225.716 Y124.423 E.08955
G1 X224.657 Y126.527 E.08952
G1 X223.496 Y128.577 E.08954
G1 X222.235 Y130.567 E.08954
G1 X220.879 Y132.493 E.08952
G1 X219.429 Y134.351 E.08957
G1 X217.891 Y136.135 E.08952
G1 X216.266 Y137.841 E.08955
G1 X214.56 Y139.466 E.08955
G1 X212.776 Y141.004 E.08952
G1 X210.918 Y142.454 E.08957
G1 X208.992 Y143.81 E.08952
G1 X207.002 Y145.071 E.08954
G1 X204.952 Y146.232 E.08954
G1 X202.848 Y147.291 E.08952
G1 X200.694 Y148.246 E.08955
G1 X198.496 Y149.094 E.08954
G1 X196.259 Y149.833 E.08954
G1 X193.988 Y150.461 E.08955
G1 X191.689 Y150.978 E.08956
G1 X189.368 Y151.38 E.08953
G1 X187.03 Y151.669 E.08953
G1 X184.68 Y151.842 E.08956
G1 X182.325 Y151.9 E.08953
G1 X179.98 Y151.843 E.08915
G1 X177.64 Y151.671 E.08917
G1 X175.312 Y151.385 E.08914
G1 X173 Y150.985 E.08918
G1 X170.71 Y150.473 E.08918
G1 X168.449 Y149.85 E.08913
G1 X166.22 Y149.117 E.08918
G1 X164.03 Y148.277 E.08915
G1 X161.884 Y147.33 E.08915
G1 X159.786 Y146.279 E.08918
G1 X157.779 Y145.148 E.08756
G1 X155.757 Y143.877 E.09077
G1 X153.836 Y142.531 E.08915
G1 X151.982 Y141.093 E.08917
G1 X150.201 Y139.566 E.08916
G1 X148.497 Y137.954 E.08915
G1 X146.874 Y136.26 E.08916
G1 X145.335 Y134.49 E.08914
G1 X143.885 Y132.646 E.08916
G1 X142.526 Y130.733 E.08918
G1 X141.262 Y128.757 E.08915
G1 X140.097 Y126.721 E.08915
G1 X139.032 Y124.63 E.08919
G1 X138.071 Y122.49 E.08916
G1 X137.216 Y120.306 E.08914
G1 X136.468 Y118.082 E.08918
G1 X135.83 Y115.825 E.08914
G1 X135.303 Y113.539 E.08916
G1 X134.888 Y111.23 E.08916
G1 X134.56 Y108.699 E.097
G1 X134.506 Y108.587 E.00473
M204 P4000
G1 X134.114 Y108.509 F18000
G1 E-.7 F2100
G1 X157.728 Y96.44 Z.663 F18000
G1 X161.225 Y94.653 Z.723
G1 X164.722 Y92.865 Z.766
G1 X171.717 Y89.291 Z.8
G1 X229.685 Y59.664
G1 Z.2 F720
G1 E.7 F1500
M204 P500
;TYPE:Solid infill
;WIDTH:0.500032
G1 F2400
G1 X228.967 Y58.946 E.03859
G1 X228.32 Y58.946 E.02459
G1 X229.479 Y60.105 E.0623
G1 X229.479 Y60.751 E.02455
G1 X227.674 Y58.946 E.09702
G1 X227.027 Y58.946 E.02459
G1 X229.479 Y61.398 E.1318
G1 X229.479 Y62.044 E.02455
G1 X226.381 Y58.946 E.16653
G1 X225.734 Y58.946 E.02459
G1 X229.479 Y62.691 E.2013
G1 X229.479 Y63.337 E.02455
G1 X225.088 Y58.946 E.23603
G1 X224.442 Y58.946 E.02455
G1 X229.479 Y63.983 E.27075
G1 X229.479 Y64.63 E.02459
G1 X223.795 Y58.946 E.30553
G1 X223.149 Y58.946 E.02455
G1 X229.479 Y65.276 E.34026
G1 X229.479 Y65.923 E.02459
G1 X222.502 Y58.946 E.37503
G1 X221.856 Y58.946 E.02455
G1 X229.479 Y66.569 E.40976
G1 X229.479 Y67.216 E.02459
G1 X221.209 Y58.946 E.44454
G1 X220.563 Y58.946 E.02455
G1 X229.479 Y67.862 E.47926
G1 X229.479 Y68.509 E.02459
G1 X219.916 Y58.946 E.51404
G1 X219.27 Y58.946 E.02455
G1 X229.479 Y69.155 E.54876
G1 X229.479 Y69.802 E.02459
M73 P1 R52
G1 X218.623 Y58.946 E.58354
G1 X217.977 Y58.946 E.02455
G1 X229.479 Y70.448 E.61827
G1 X229.479 Y71.094 E.02455
G1 X217.331 Y58.946 E.65299
G1 X216.684 Y58.946 E.02459
G1 X229.479 Y71.741 E.68777
G1 X229.479 Y72.387 E.02455
G1 X216.038 Y58.946 E.72249
G1 X215.391 Y58.946 E.02459
G1 X229.479 Y73.034 E.75727
G1 X229.479 Y73.68 E.02455
G1 X214.745 Y58.946 E.79199
G1 X214.098 Y58.946 E.02459
G1 X229.479 Y74.327 E.82677
G1 X229.479 Y74.973 E.02455
G1 X213.452 Y58.946 E.8615
G1 X212.805 Y58.946 E.02459
G1 X229.479 Y75.62 E.89628
G1 X229.479 Y76.266 E.02455
G1 X212.159 Y58.946 E.931
G1 X211.512 Y58.946 E.02459
G1 X229.479 Y76.913 E.96578
G1 X229.479 Y77.559 E.02455
G1 X210.866 Y58.946 E1.0005
G1 X210.22 Y58.946 E.02455
G1 X229.479 Y78.205 E1.03523
G1 X229.479 Y78.852 E.02459
G1 X209.573 Y58.946 E1.07
G1 X208.927 Y58.946 E.02455
G1 X229.479 Y79.498 E1.10473
G1 X229.479 Y80.145 E.02459
G1 X208.28 Y58.946 E1.13951
G1 X207.634 Y58.946 E.02455
G1 X229.479 Y80.791 E1.17423
M73 P2 R52
G1 X229.479 Y81.438 E.02459
G1 X206.987 Y58.946 E1.20901
G1 X206.341 Y58.946 E.02455
G1 X229.479 Y82.084 E1.24373
G1 X229.479 Y82.731 E.02459
G1 X205.694 Y58.946 E1.27851
G1 X205.048 Y58.946 E.02455
M73 Q2 S56
G1 X229.479 Y83.377 E1.31324
G1 X229.479 Y84.024 E.02459
G1 X204.401 Y58.946 E1.34801
G1 X203.755 Y58.946 E.02455
G1 X229.479 Y84.67 E1.38274
G1 X229.479 Y85.316 E.02455
G1 X203.109 Y58.946 E1.41746
G1 X202.462 Y58.946 E.02459
G1 X229.479 Y85.963 E1.45224
G1 X229.479 Y86.609 E.02455
M73 Q2 S55
G1 X201.816 Y58.946 E1.48697
G1 X201.169 Y58.946 E.02459
G1 X229.479 Y87.256 E1.52174
G1 X229.479 Y87.902 E.02455
G1 X200.523 Y58.946 E1.55647
G1 X199.876 Y58.946 E.02459
G1 X229.479 Y88.549 E1.59125
G1 X229.479 Y89.195 E.02455
G1 X199.23 Y58.946 E1.62597
G1 X198.583 Y58.946 E.02459
G1 X229.479 Y89.842 E1.66075
G1 X229.479 Y90.488 E.02455
G1 X197.937 Y58.946 E1.69547
G1 X197.29 Y58.946 E.02459
G1 X229.479 Y91.135 E1.73025
G1 X229.479 Y91.781 E.02455
G1 X196.644 Y58.946 E1.76498
G1 X195.998 Y58.946 E.02455
G1 X229.479 Y92.427 E1.7997
G1 X229.479 Y93.074 E.02459
G1 X195.351 Y58.946 E1.83448
G1 X194.705 Y58.946 E.02455
G1 X229.479 Y93.72 E1.8692
G1 X229.479 Y94.367 E.02459
G1 X194.058 Y58.946 E1.90398
G1 X193.412 Y58.946 E.02455
G1 X229.479 Y95.013 E1.9387
G1 X229.479 Y95.66 E.02459
G1 X192.765 Y58.946 E1.97348
G1 X192.119 Y58.946 E.02455
G1 X229.479 Y96.306 E2.00821
G1 X229.479 Y96.953 E.02459
G1 X191.472 Y58.946 E2.04299
G1 X190.826 Y58.946 E.02455
G1 X229.479 Y97.599 E2.07771
G1 X229.479 Y98.246 E.02459
G1 X190.18 Y58.946 E2.11246
G1 X189.533 Y58.946 E.02459
M73 P3 R52
G1 X229.479 Y98.892 E2.14721
G1 X229.479 Y99.538 E.02455
G1 X188.887 Y58.946 E2.18194
G1 X188.24 Y58.946 E.02459
G1 X229.479 Y100.185 E2.21671
G1 X229.479 Y100.831 E.02455
M73 Q3 S55
G1 X187.594 Y58.946 E2.25144
G1 X186.947 Y58.946 E.02459
G1 X229.479 Y101.478 E2.28622
G1 X229.479 Y102.124 E.02455
G1 X186.301 Y58.946 E2.32094
G1 X185.654 Y58.946 E.02459
G1 X229.479 Y102.771 E2.35572
G1 X229.479 Y103.417 E.02455
G1 X185.008 Y58.946 E2.39044
G1 X184.361 Y58.946 E.02459
G1 X229.475 Y104.059 E2.42498
G1 X229.46 Y104.69 E.02399
G1 X183.715 Y58.946 E2.4589
G1 X183.069 Y58.946 E.02455
M73 P3 R51
G1 X229.444 Y105.321 E2.49279
G1 X229.429 Y105.952 E.02399
G1 X182.422 Y58.946 E2.52673
G1 X181.776 Y58.946 E.02455
G1 X229.396 Y106.566 E2.55971
G1 X229.352 Y107.168 E.02294
G1 X189.772 Y67.589 E2.12751
G2 X188.884 Y66.369 I-1.089 J-.14 E.06323
G1 X188.538 Y66.354 E.01316
G1 X181.129 Y58.946 E.39823
G1 X180.483 Y58.946 E.02455
G1 X187.891 Y66.354 E.3982
G1 X187.245 Y66.354 E.02455
G1 X179.836 Y58.946 E.39823
G1 X179.19 Y58.946 E.02455
G1 X186.599 Y66.354 E.39823
G1 X185.952 Y66.354 E.02459
G1 X178.543 Y58.946 E.39823
G1 X177.897 Y58.946 E.02455
G1 X185.306 Y66.354 E.39823
G1 X184.659 Y66.354 E.02459
G1 X177.25 Y58.946 E.39823
G1 X176.604 Y58.946 E.02455
G1 X184.013 Y66.354 E.39823
G1 X183.366 Y66.354 E.02459
G1 X175.958 Y58.946 E.3982
G1 X175.311 Y58.946 E.02459
G1 X182.72 Y66.354 E.39823
G1 X182.073 Y66.354 E.02459
G1 X174.665 Y58.946 E.3982
G1 X174.018 Y58.946 E.02459
G1 X181.427 Y66.354 E.39823
G1 X180.781 Y66.354 E.02455
G1 X173.372 Y58.946 E.39823
G1 X172.725 Y58.946 E.02459
G1 X180.134 Y66.354 E.39823
G1 X179.488 Y66.354 E.02455
G1 X172.079 Y58.946 E.39823
G1 X171.432 Y58.946 E.02459
G1 X178.841 Y66.354 E.39823
G1 X178.195 Y66.354 E.02455
G1 X170.786 Y58.946 E.39823
G1 X170.139 Y58.946 E.02459
G1 X177.548 Y66.354 E.39823
G1 X176.902 Y66.354 E.02455
G1 X169.493 Y58.946 E.39823
G1 X168.847 Y58.946 E.02455
G1 X176.255 Y66.354 E.3982
G2 X175.653 Y66.399 I-.16 J1.936 E.02304
G1 X168.2 Y58.946 E.40062
G1 X167.554 Y58.946 E.02455
G1 X175.236 Y66.628 E.41293
G2 X174.965 Y67.003 I.683 J.778 E.01774
G1 X166.907 Y58.946 E.43311
G1 X166.261 Y58.946 E.02455
G1 X174.88 Y67.565 E.4633
G1 X174.896 Y68.227 E.02517
G1 X165.614 Y58.946 E.49891
G1 X164.968 Y58.946 E.02455
G1 X174.911 Y68.889 E.53446
G1 X174.927 Y69.551 E.02517
M73 P4 R51
G1 X164.321 Y58.946 E.57008
G1 X163.675 Y58.946 E.02455
G1 X174.942 Y70.213 E.60563
G1 X174.957 Y70.875 E.02517
G1 X163.028 Y58.946 E.64122
G1 X162.382 Y58.946 E.02455
G1 X174.973 Y71.536 E.67678
G1 X174.988 Y72.198 E.02517
G1 X161.736 Y58.946 E.71233
G1 X161.089 Y58.946 E.02459
G1 X175.004 Y72.86 E.74794
