; generated by PrusaSlicer 2.7.2+win64 on 2024-03-19 at 05:47:23 UTC


;
;

;
;

;
;

;
;

;
;
; 

; external perimeters extrusion width = 0.45mm
; perimeters extrusion width = 0.45mm
; infill extrusion width = 0.45mm
; solid infill extrusion width = 0.45mm
; top infill extrusion width = 0.42mm
; support material extrusion width = 0.36mm
; first layer extrusion width = 0.50mm

M73 P0 R149
M201 X4000 Y4000 Z200 E2500 ; sets maximum accelerations, mm/sec^2
M203 X300 Y300 Z40 E100 ; sets maximum feedrates, mm / sec
M204 P4000 R1200 T4000 ; sets acceleration (P, T) and retract acceleration (R), mm/sec^2
M205 X8.00 Y8.00 Z2.00 E10.00 ; sets the jerk limits, mm/sec
M205 S0 T0 ; sets the minimum extruding and travel feed rate, mm/sec

M486 S0
M486 AAeroponics Box Top - Aeroponics Box Top.stl
M486 S-1

;TYPE:Custom
M17 ; enable steppers
M862.1 P0.4 ; nozzle diameter check
M862.3 P "MK4" ; printer model check
M862.5 P2 ; g-code level check
M862.6 P"Input shaper" ; FW feature check
M115 U5.1.2+13478

M555 X34.0214 Y47.5214 W181.957 H110.957

G90 ; use absolute coordinates
M83 ; extruder relative mode

M140 S60 ; set bed temp
M104 T0 S170 ; set extruder temp for bed leveling
M109 T0 R170 ; wait for temp

M84 E ; turn off E motor

G28 ; home all without mesh bed level

G1 X42 Y-4 Z5 F4800

M302 S160 ; lower cold extrusion limit to 160C


G1 E-2 F2400 ; retraction


M84 E ; turn off E motor

G29 P9 X10 Y-4 W32 H4

M106 S100

G0 Z40 F10000

M190 S60 ; wait for bed temp

M107

;
; MBL
;
M84 E ; turn off E motor
G29 P1 ; invalidate mbl & probe print area
G29 P1 X0 Y0 W50 H20 C ; probe near purge place
G29 P3.2 ; interpolate mbl probes
G29 P3.13 ; extrapolate mbl outside probe area
G29 A ; activate mbl

; prepare for purge
M104 S230
G0 X0 Y-4 Z15 F4800 ; move away and ready for the purge
M109 S230

G92 E0
M569 S0 E ; set spreadcycle mode for extruder

;
; Extrude purge line
;
G92 E0 ; reset extruder position
G1 E2 F2400 ; deretraction after the initial one before nozzle cleaning
G0 E7 X15 Z0.2 F500 ; purge
G0 X25 E4 F500 ; purge
G0 X35 E4 F650 ; purge
G0 X45 E4 F800 ; purge
G0 X48 Z0.05 F8000 ; wipe, move close to the bed
G0 X51 Z0.2 F8000 ; wipe, move quickly away from the bed

G92 E0
M221 S100 ; set flow to 100%
G21 ; set units to millimeters
G90 ; use absolute coordinates
M83 ; use relative distances for extrusion
M900 K0.05 ; Filament gcode


M572 S0.036 ; Filament gcode


M142 S36 ; set heatbreak target temp
M107
;LAYER_CHANGE
;Z:0.2
;HEIGHT:0.2
G1 E-.7 F2100
M486 S0
G1 Z.8 F720
G1 X215.75 Y158.25 F18000
G1 Z.2 F720
G1 E.7 F2100
M204 P500
;TYPE:Support material
;WIDTH:0.5
G1 F2400
G1 X34.25 Y158.25 E6.89815
G1 X34.25 Y51.75 E4.04767
G1 X215.75 Y51.75 E6.89815
G1 X215.75 Y158.181 E4.04505
M204 P4000
G1 E-.7 F2100
M204 T4000
G1 X215.75 Y158.181 F18000
G1 X189.263 Y156.878 Z.663
G1 X185.34 Y156.685 Z.723
G1 X181.418 Y156.492 Z.766
G1 X173.572 Y156.106 Z.8
G1 X57.447 Y150.39
G1 Z.2 F720
G1 E.7 F2100
M204 P500
G1 F2400
G1 X192.553 Y150.39 E5.13488
G1 X192.91 Y150.747 E.01919
M73 P0 R148
G1 X192.91 Y153.253 E.09524
G1 X192.553 Y153.61 E.01919
G1 X57.447 Y153.61 E5.13488
G1 X57.09 Y153.253 E.01919
G1 X57.09 Y150.747 E.09524
G1 X57.399 Y150.438 E.01661
M204 P4000
G1 X57.399 Y150.438 F18000
G1 X208.247 Y74.59
M204 P500
G1 F2400
G1 X210.753 Y74.59 E.09524
G1 X211.11 Y74.947 E.01919
G1 X211.11 Y135.053 E2.28441
G1 X210.753 Y135.41 E.01919
G1 X208.247 Y135.41 E.09524
G1 X207.89 Y135.053 E.01919
G1 X207.89 Y74.947 E2.28441
G1 X208.199 Y74.638 E.01661
M204 P4000
G1 X208.199 Y74.638 F18000
G1 X41.247 Y100.39
M204 P500
G1 F2400
G1 X43.753 Y100.39 E.09524
G1 X44.11 Y100.747 E.01919
G1 X44.11 Y109.253 E.32328
G1 X43.753 Y109.61 E.01919
G1 X41.247 Y109.61 E.09524
G1 X40.89 Y109.253 E.01919
G1 X40.89 Y100.747 E.32328
G1 X41.199 Y100.438 E.01661
M204 P4000
G1 X41.199 Y100.438 F18000
G1 X57.447 Y56.39
M204 P500
G1 F2400
G1 X192.553 Y56.39 E5.13488
G1 X192.91 Y56.747 E.01919
G1 X192.91 Y59.253 E.09524
G1 X192.553 Y59.61 E.01919
G1 X57.447 Y59.61 E5.13488
G1 X57.09 Y59.253 E.01919
G1 X57.09 Y56.747 E.09524
G1 X57.399 Y56.438 E.01661
M204 P4000
G1 E-.7 F2100
G1 X57.399 Y56.438 F18000
G1 X79.699 Y70.79 Z.663
G1 X83.001 Y72.916 Z.723
G1 X86.304 Y75.041 Z.766
G1 X92.909 Y79.292 Z.8
G1 X215.273 Y158.044
G1 Z.2 F720
G1 E.7 F2100
M204 P500
G1 F2400
G1 X215.273 Y52.161 E4.02422
G1 X214.702 Y52.161 E.0217
G1 X214.702 Y157.839 E4.01643
G1 X214.13 Y157.839 E.02174
G1 X214.13 Y52.161 E4.01643
G1 X213.559 Y52.161 E.0217
G1 X213.559 Y157.839 E4.01643
G1 X212.988 Y157.839 E.0217
G1 X212.988 Y52.161 E4.01643
G1 X212.416 Y52.161 E.02174
G1 X212.416 Y157.839 E4.01643
G1 X211.845 Y157.839 E.0217
G1 X211.845 Y52.161 E4.01643
G1 X211.274 Y52.161 E.0217
G1 X211.274 Y74.529 E.85013
G1 X210.923 Y74.179 E.01884
G1 X210.702 Y74.179 E.0084
G1 X210.702 Y52.161 E.83682
G1 X210.131 Y52.161 E.0217
G1 X210.131 Y74.179 E.83682
G1 X209.56 Y74.179 E.0217
G1 X209.56 Y52.161 E.83682
G1 X208.988 Y52.161 E.02174
G1 X208.988 Y74.179 E.83682
G1 X208.417 Y74.179 E.0217
G1 X208.417 Y52.161 E.83682
G1 X207.846 Y52.161 E.0217
G1 X207.846 Y74.41 E.8456
G1 X207.479 Y74.777 E.01973
G1 X207.479 Y135.223 E2.29733
G1 X207.846 Y135.59 E.01973
G1 X207.846 Y157.839 E.8456
G1 X208.417 Y157.839 E.0217
G1 X208.417 Y135.821 E.83682
G1 X208.988 Y135.821 E.0217
G1 X208.988 Y157.839 E.83682
G1 X209.56 Y157.839 E.02174
G1 X209.56 Y135.821 E.83682
G1 X210.131 Y135.821 E.0217
G1 X210.131 Y157.839 E.83682
G1 X210.702 Y157.839 E.0217
G1 X210.702 Y135.821 E.83682
G1 X210.923 Y135.821 E.0084
G1 X211.274 Y135.471 E.01884
G1 X211.274 Y158.044 E.85792
M204 P4000
G1 X211.274 Y158.044 F18000
G1 X207.274 Y158.044
M204 P500
G1 F2400
G1 X207.274 Y52.161 E4.02422
G1 X206.703 Y52.161 E.0217
G1 X206.703 Y157.839 E4.01643
G1 X206.132 Y157.839 E.0217
G1 X206.132 Y52.161 E4.01643
G1 X205.56 Y52.161 E.02174
G1 X205.56 Y157.839 E4.01643
G1 X204.989 Y157.839 E.0217
G1 X204.989 Y52.161 E4.01643
G1 X204.418 Y52.161 E.0217
M73 P0 R147
G1 X204.418 Y157.839 E4.01643
G1 X203.846 Y157.839 E.02174
M73 P1 R147
G1 X203.846 Y52.161 E4.01643
G1 X203.275 Y52.161 E.0217
G1 X203.275 Y157.839 E4.01643
G1 X202.703 Y157.839 E.02174
G1 X202.703 Y52.161 E4.01643
G1 X202.132 Y52.161 E.0217
G1 X202.132 Y157.839 E4.01643
G1 X201.561 Y157.839 E.0217
G1 X201.561 Y52.161 E4.01643
G1 X200.989 Y52.161 E.02174
G1 X200.989 Y157.839 E4.01643
G1 X200.418 Y157.839 E.0217
G1 X200.418 Y52.161 E4.01643
G1 X199.847 Y52.161 E.0217
G1 X199.847 Y157.839 E4.01643
G1 X199.275 Y157.839 E.02174
G1 X199.275 Y52.161 E4.01643
G1 X198.704 Y52.161 E.0217
G1 X198.704 Y157.839 E4.01643
G1 X198.133 Y157.839 E.0217
G1 X198.133 Y52.161 E4.01643
G1 X197.561 Y52.161 E.02174
G1 X197.561 Y157.839 E4.01643
G1 X196.99 Y157.839 E.0217
G1 X196.99 Y52.161 E4.01643
G1 X196.419 Y52.161 E.0217
G1 X196.419 Y157.839 E4.01643
G1 X195.847 Y157.839 E.02174
G1 X195.847 Y52.161 E4.01643
G1 X195.276 Y52.161 E.0217
G1 X195.276 Y157.839 E4.01643
G1 X194.705 Y157.839 E.0217
G1 X194.705 Y52.161 E4.01643
G1 X194.133 Y52.161 E.02174
G1 X194.133 Y157.839 E4.01643
G1 X193.562 Y157.839 E.0217
G1 X193.562 Y52.161 E4.01643
G1 X192.991 Y52.161 E.0217
G1 X192.991 Y56.246 E.15526
G2 X192.419 Y55.979 I-.463 J.245 E.02575
G1 X192.419 Y52.161 E.14511
G1 X191.848 Y52.161 E.0217
G1 X191.848 Y55.979 E.14511
G1 X191.276 Y55.979 E.02174
G1 X191.276 Y52.161 E.14511
G1 X190.705 Y52.161 E.0217
G1 X190.705 Y55.979 E.14511
G1 X190.134 Y55.979 E.0217
G1 X190.134 Y52.161 E.14511
G1 X189.562 Y52.161 E.02174
G1 X189.562 Y55.979 E.14511
G1 X188.991 Y55.979 E.0217
G1 X188.991 Y52.161 E.14511
G1 X188.42 Y52.161 E.0217
G1 X188.42 Y55.979 E.14511
G1 X187.848 Y55.979 E.02174
G1 X187.848 Y52.161 E.14511
G1 X187.277 Y52.161 E.0217
G1 X187.277 Y55.979 E.14511
G1 X186.706 Y55.979 E.0217
G1 X186.706 Y52.161 E.14511
G1 X186.134 Y52.161 E.02174
G1 X186.134 Y55.979 E.14511
G1 X185.563 Y55.979 E.0217
G1 X185.563 Y52.161 E.14511
G1 X184.992 Y52.161 E.0217
M73 P1 R146
G1 X184.992 Y55.979 E.14511
G1 X184.42 Y55.979 E.02174
G1 X184.42 Y52.161 E.14511
G1 X183.849 Y52.161 E.0217
G1 X183.849 Y55.979 E.14511
G1 X183.278 Y55.979 E.0217
G1 X183.278 Y52.161 E.14511
G1 X182.706 Y52.161 E.02174
G1 X182.706 Y55.979 E.14511
G1 X182.135 Y55.979 E.0217
G1 X182.135 Y52.161 E.14511
G1 X181.564 Y52.161 E.0217
G1 X181.564 Y55.979 E.14511
G1 X180.992 Y55.979 E.02174
G1 X180.992 Y52.161 E.14511
G1 X180.421 Y52.161 E.0217
G1 X180.421 Y55.979 E.14511
G1 X179.85 Y55.979 E.0217
G1 X179.85 Y52.161 E.14511
G1 X179.278 Y52.161 E.02174
G1 X179.278 Y55.979 E.14511
G1 X178.707 Y55.979 E.0217
G1 X178.707 Y52.161 E.14511
G1 X178.135 Y52.161 E.02174
G1 X178.135 Y55.979 E.14511
G1 X177.564 Y55.979 E.0217
G1 X177.564 Y52.161 E.14511
G1 X176.993 Y52.161 E.0217
G1 X176.993 Y55.979 E.14511
G1 X176.421 Y55.979 E.02174
G1 X176.421 Y52.161 E.14511
G1 X175.85 Y52.161 E.0217
G1 X175.85 Y55.979 E.14511
G1 X175.279 Y55.979 E.0217
G1 X175.279 Y52.161 E.14511
G1 X174.707 Y52.161 E.02174
G1 X174.707 Y55.979 E.14511
G1 X174.136 Y55.979 E.0217
G1 X174.136 Y52.161 E.14511
G1 X173.565 Y52.161 E.0217
G1 X173.565 Y55.979 E.14511
G1 X172.993 Y55.979 E.02174
G1 X172.993 Y52.161 E.14511
G1 X172.422 Y52.161 E.0217
G1 X172.422 Y55.979 E.14511
G1 X171.851 Y55.979 E.0217
G1 X171.851 Y52.161 E.14511
G1 X171.279 Y52.161 E.02174
G1 X171.279 Y55.979 E.14511
G1 X170.708 Y55.979 E.0217
G1 X170.708 Y52.161 E.14511
G1 X170.137 Y52.161 E.0217
G1 X170.137 Y55.979 E.14511
G1 X169.565 Y55.979 E.02174
G1 X169.565 Y52.161 E.14511
G1 X168.994 Y52.161 E.0217
G1 X168.994 Y55.979 E.14511
G1 X168.423 Y55.979 E.0217
G1 X168.423 Y52.161 E.14511
G1 X167.851 Y52.161 E.02174
G1 X167.851 Y55.979 E.14511
G1 X167.28 Y55.979 E.0217
G1 X167.28 Y52.161 E.14511
G1 X166.708 Y52.161 E.02174
G1 X166.708 Y55.979 E.14511
G1 X166.137 Y55.979 E.0217
G1 X166.137 Y52.161 E.14511
G1 X165.566 Y52.161 E.0217
G1 X165.566 Y55.979 E.14511
G1 X164.994 Y55.979 E.02174
G1 X164.994 Y52.161 E.14511
G1 X164.423 Y52.161 E.0217
G1 X164.423 Y55.979 E.14511
G1 X163.852 Y55.979 E.0217
G1 X163.852 Y52.161 E.14511
G1 X163.28 Y52.161 E.02174
G1 X163.28 Y55.979 E.14511
G1 X162.709 Y55.979 E.0217
G1 X162.709 Y52.161 E.14511
G1 X162.138 Y52.161 E.0217
G1 X162.138 Y55.979 E.14511
G1 X161.566 Y55.979 E.02174
G1 X161.566 Y52.161 E.14511
G1 X160.995 Y52.161 E.0217
G1 X160.995 Y55.979 E.14511
G1 X160.424 Y55.979 E.0217
G1 X160.424 Y52.161 E.14511
G1 X159.852 Y52.161 E.02174
G1 X159.852 Y55.979 E.14511
G1 X159.281 Y55.979 E.0217
G1 X159.281 Y52.161 E.14511
G1 X158.71 Y52.161 E.0217
G1 X158.71 Y55.979 E.14511
G1 X158.138 Y55.979 E.02174
G1 X158.138 Y52.161 E.14511
G1 X157.567 Y52.161 E.0217
G1 X157.567 Y55.979 E.14511
G1 X156.996 Y55.979 E.0217
G1 X156.996 Y52.161 E.14511
G1 X156.424 Y52.161 E.02174
G1 X156.424 Y55.979 E.14511
G1 X155.853 Y55.979 E.0217
G1 X155.853 Y52.161 E.14511
G1 X155.282 Y52.161 E.0217
G1 X155.282 Y55.979 E.14511
G1 X154.71 Y55.979 E.02174
G1 X154.71 Y52.161 E.14511
G1 X154.139 Y52.161 E.0217
G1 X154.139 Y55.979 E.14511
G1 X153.567 Y55.979 E.02174
G1 X153.567 Y52.161 E.14511
G1 X152.996 Y52.161 E.0217
G1 X152.996 Y55.979 E.14511
G1 X152.425 Y55.979 E.0217
G1 X152.425 Y52.161 E.14511
G1 X151.853 Y52.161 E.02174
G1 X151.853 Y55.979 E.14511
G1 X151.282 Y55.979 E.0217
G1 X151.282 Y52.161 E.14511
G1 X150.711 Y52.161 E.0217
G1 X150.711 Y55.979 E.14511
G1 X150.139 Y55.979 E.02174
G1 X150.139 Y52.161 E.14511
G1 X149.568 Y52.161 E.0217
G1 X149.568 Y55.979 E.14511
G1 X148.997 Y55.979 E.0217
G1 X148.997 Y52.161 E.14511
G1 X148.425 Y52.161 E.02174
G1 X148.425 Y55.979 E.14511
G1 X147.854 Y55.979 E.0217
G1 X147.854 Y52.161 E.14511
G1 X147.283 Y52.161 E.0217
G1 X147.283 Y55.979 E.14511
G1 X146.711 Y55.979 E.02174
G1 X146.711 Y52.161 E.14511
G1 X146.14 Y52.161 E.0217
G1 X146.14 Y55.979 E.14511
G1 X145.569 Y55.979 E.0217
G1 X145.569 Y52.161 E.14511
G1 X144.997 Y52.161 E.02174
G1 X144.997 Y55.979 E.14511
G1 X144.426 Y55.979 E.0217
G1 X144.426 Y52.161 E.14511
G1 X143.855 Y52.161 E.0217
G1 X143.855 Y55.979 E.14511
G1 X143.283 Y55.979 E.02174
G1 X143.283 Y52.161 E.14511
G1 X142.712 Y52.161 E.0217
G1 X142.712 Y55.979 E.14511
G1 X142.14 Y55.979 E.02174
G1 X142.14 Y52.161 E.14511
G1 X141.569 Y52.161 E.0217
G1 X141.569 Y55.979 E.14511
G1 X140.998 Y55.979 E.0217
G1 X140.998 Y52.161 E.14511
G1 X140.426 Y52.161 E.02174
G1 X140.426 Y55.979 E.14511
G1 X139.855 Y55.979 E.0217
G1 X139.855 Y52.161 E.14511
G1 X139.284 Y52.161 E.0217
G1 X139.284 Y55.979 E.14511
G1 X138.712 Y55.979 E.02174
G1 X138.712 Y52.161 E.14511
G1 X138.141 Y52.161 E.0217
G1 X138.141 Y55.979 E.14511
G1 X137.57 Y55.979 E.0217
G1 X137.57 Y52.161 E.14511
G1 X136.998 Y52.161 E.02174
G1 X136.998 Y55.979 E.14511
G1 X136.427 Y55.979 E.0217
G1 X136.427 Y52.161 E.14511
G1 X135.856 Y52.161 E.0217
G1 X135.856 Y55.979 E.14511
G1 X135.284 Y55.979 E.02174
G1 X135.284 Y52.161 E.14511
G1 X134.713 Y52.161 E.0217
G1 X134.713 Y55.979 E.14511
G1 X134.142 Y55.979 E.0217
G1 X134.142 Y52.161 E.14511
G1 X133.57 Y52.161 E.02174
G1 X133.57 Y55.979 E.14511
G1 X132.999 Y55.979 E.0217
G1 X132.999 Y52.161 E.14511
G1 X132.428 Y52.161 E.0217
G1 X132.428 Y55.979 E.14511
G1 X131.856 Y55.979 E.02174
G1 X131.856 Y52.161 E.14511
G1 X131.285 Y52.161 E.0217
G1 X131.285 Y55.979 E.14511
G1 X130.713 Y55.979 E.02174
G1 X130.713 Y52.161 E.14511
G1 X130.142 Y52.161 E.0217
G1 X130.142 Y55.979 E.14511
G1 X129.571 Y55.979 E.0217
G1 X129.571 Y52.161 E.14511
G1 X128.999 Y52.161 E.02174
G1 X128.999 Y55.979 E.14511
G1 X128.428 Y55.979 E.0217
G1 X128.428 Y52.161 E.14511
G1 X127.857 Y52.161 E.0217
G1 X127.857 Y55.979 E.14511
G1 X127.285 Y55.979 E.02174
G1 X127.285 Y52.161 E.14511
G1 X126.714 Y52.161 E.0217
G1 X126.714 Y55.979 E.14511
G1 X126.143 Y55.979 E.0217
G1 X126.143 Y52.161 E.14511
G1 X125.571 Y52.161 E.02174
G1 X125.571 Y55.979 E.14511
G1 X125 Y55.979 E.0217
G1 X125 Y52.161 E.14511
G1 X124.429 Y52.161 E.0217
G1 X124.429 Y55.979 E.14511
G1 X123.857 Y55.979 E.02174
G1 X123.857 Y52.161 E.14511
G1 X123.286 Y52.161 E.0217
G1 X123.286 Y55.979 E.14511
G1 X122.715 Y55.979 E.0217
G1 X122.715 Y52.161 E.14511
G1 X122.143 Y52.161 E.02174
G1 X122.143 Y55.979 E.14511
G1 X121.572 Y55.979 E.0217
G1 X121.572 Y52.161 E.14511
G1 X121.001 Y52.161 E.0217
G1 X121.001 Y55.979 E.14511
G1 X120.429 Y55.979 E.02174
G1 X120.429 Y52.161 E.14511
G1 X119.858 Y52.161 E.0217
G1 X119.858 Y55.979 E.14511
G1 X119.287 Y55.979 E.0217
G1 X119.287 Y52.161 E.14511
G1 X118.715 Y52.161 E.02174
G1 X118.715 Y55.979 E.14511
G1 X118.144 Y55.979 E.0217
G1 X118.144 Y52.161 E.14511
G1 X117.572 Y52.161 E.02174
G1 X117.572 Y55.979 E.14511
G1 X117.001 Y55.979 E.0217
G1 X117.001 Y52.161 E.14511
G1 X116.43 Y52.161 E.0217
G1 X116.43 Y55.979 E.14511
G1 X115.858 Y55.979 E.02174
G1 X115.858 Y52.161 E.14511
G1 X115.287 Y52.161 E.0217
G1 X115.287 Y55.979 E.14511
G1 X114.716 Y55.979 E.0217
G1 X114.716 Y52.161 E.14511
G1 X114.144 Y52.161 E.02174
G1 X114.144 Y55.979 E.14511
G1 X113.573 Y55.979 E.0217
G1 X113.573 Y52.161 E.14511
G1 X113.002 Y52.161 E.0217
G1 X113.002 Y55.979 E.14511
G1 X112.43 Y55.979 E.02174
G1 X112.43 Y52.161 E.14511
G1 X111.859 Y52.161 E.0217
G1 X111.859 Y55.979 E.14511
G1 X111.288 Y55.979 E.0217
G1 X111.288 Y52.161 E.14511
G1 X110.716 Y52.161 E.02174
G1 X110.716 Y55.979 E.14511
G1 X110.145 Y55.979 E.0217
G1 X110.145 Y52.161 E.14511
G1 X109.574 Y52.161 E.0217
G1 X109.574 Y55.979 E.14511
G1 X109.002 Y55.979 E.02174
G1 X109.002 Y52.161 E.14511
G1 X108.431 Y52.161 E.0217
G1 X108.431 Y55.979 E.14511
G1 X107.86 Y55.979 E.0217
G1 X107.86 Y52.161 E.14511
G1 X107.288 Y52.161 E.02174
G1 X107.288 Y55.979 E.14511
G1 X106.717 Y55.979 E.0217
G1 X106.717 Y52.161 E.14511
G1 X106.145 Y52.161 E.02174
G1 X106.145 Y55.979 E.14511
G1 X105.574 Y55.979 E.0217
G1 X105.574 Y52.161 E.14511
G1 X105.003 Y52.161 E.0217
G1 X105.003 Y55.979 E.14511
G1 X104.431 Y55.979 E.02174
G1 X104.431 Y52.161 E.14511
G1 X103.86 Y52.161 E.0217
G1 X103.86 Y55.979 E.14511
G1 X103.289 Y55.979 E.0217
G1 X103.289 Y52.161 E.14511
G1 X102.717 Y52.161 E.02174
G1 X102.717 Y55.979 E.14511
G1 X102.146 Y55.979 E.0217
G1 X102.146 Y52.161 E.14511
G1 X101.575 Y52.161 E.0217
G1 X101.575 Y55.979 E.14511
G1 X101.003 Y55.979 E.02174
