; generated by PrusaSlicer 2.7.2+win64 on 2024-03-18 at 22:20:04 UTC


;
;

;
;

;
;

;
;

;
;
; 

; external perimeters extrusion width = 0.45mm
; perimeters extrusion width = 0.45mm
; infill extrusion width = 0.45mm
; solid infill extrusion width = 0.45mm
; top infill extrusion width = 0.42mm
; first layer extrusion width = 0.50mm

M73 P0 R10
M201 X4000 Y4000 Z200 E2500 ; sets maximum accelerations, mm/sec^2
M203 X300 Y300 Z40 E100 ; sets maximum feedrates, mm / sec
M204 P4000 R1200 T4000 ; sets acceleration (P, T) and retract acceleration (R), mm/sec^2
M205 X8.00 Y8.00 Z2.00 E10.00 ; sets the jerk limits, mm/sec
M205 S0 T0 ; sets the minimum extruding and travel feed rate, mm/sec

M486 S0
M486 AAeroponics Box Divider - Aeroponics Box Divider.stl
M486 S-1

;TYPE:Custom
M17 ; enable steppers
M862.1 P0.4 ; nozzle diameter check
M862.3 P "MK4" ; printer model check
M862.5 P2 ; g-code level check
M862.6 P"Input shaper" ; FW feature check
M115 U5.1.2+13478

M555 X95.5 Y75 W59 H56

G90 ; use absolute coordinates
M83 ; extruder relative mode

M140 S60 ; set bed temp
M104 T0 S170 ; set extruder temp for bed leveling
M109 T0 R170 ; wait for temp

M84 E ; turn off E motor

G28 ; home all without mesh bed level

G1 X42 Y-4 Z5 F4800

M302 S160 ; lower cold extrusion limit to 160C


G1 E-2 F2400 ; retraction


M84 E ; turn off E motor

G29 P9 X10 Y-4 W32 H4

M106 S100

G0 Z40 F10000

M190 S60 ; wait for bed temp

M107

;
; MBL
;
M84 E ; turn off E motor
G29 P1 ; invalidate mbl & probe print area
G29 P1 X0 Y0 W50 H20 C ; probe near purge place
G29 P3.2 ; interpolate mbl probes
G29 P3.13 ; extrapolate mbl outside probe area
G29 A ; activate mbl

; prepare for purge
M104 S230
G0 X0 Y-4 Z15 F4800 ; move away and ready for the purge
M73 P0 R9
M109 S230

G92 E0
M569 S0 E ; set spreadcycle mode for extruder

;
; Extrude purge line
;
G92 E0 ; reset extruder position
G1 E2 F2400 ; deretraction after the initial one before nozzle cleaning
G0 E7 X15 Z0.2 F500 ; purge
G0 X25 E4 F500 ; purge
G0 X35 E4 F650 ; purge
M73 P1 R9
G0 X45 E4 F800 ; purge
G0 X48 Z0.05 F8000 ; wipe, move close to the bed
G0 X51 Z0.2 F8000 ; wipe, move quickly away from the bed

G92 E0
M221 S100 ; set flow to 100%
G21 ; set units to millimeters
G90 ; use absolute coordinates
M83 ; use relative distances for extrusion
M900 K0.05 ; Filament gcode


M572 S0.036 ; Filament gcode


M142 S36 ; set heatbreak target temp
M107
;LAYER_CHANGE
;Z:0.2
;HEIGHT:0.2
G1 E-.7 F2100
M486 S0
G1 Z.8 F720
G1 X153.593 Y130.093 F18000
G1 Z.2 F720
G1 E.7 F2100
M204 P500
;TYPE:Perimeter
;WIDTH:0.499999
G1 F2400
G1 X96.407 Y130.093 E2.17343
G1 X96.407 Y79.907 E1.90738
G1 X153.593 Y79.907 E2.17343
M73 P2 R9
G1 X153.593 Y86.832 E.26319
G1 X153.593 Y130.033 E1.64191
M204 P4000
M204 T4000
G1 X154.05 Y130.55 F18000
M204 P500
;TYPE:External perimeter
G1 F2400
G1 X95.95 Y130.55 E2.20816
G1 X95.95 Y79.45 E1.94212
G1 X154.05 Y79.45 E2.20816
G1 X154.05 Y86.832 E.28056
M73 P3 R9
G1 X154.05 Y130.49 E1.65928
M204 P4000
G1 X153.654 Y130.549 F18000
G1 E-.7 F2100
G1 X141.35 Y107.058 Z.663 F18000
G1 X139.527 Y103.579 Z.723
G1 X137.705 Y100.1 Z.766
G1 X134.061 Y93.141 Z.8
G1 X133.186 Y91.471
G1 Z.2 F720
G1 E.7 F2100
M204 P500
;TYPE:Perimeter
G1 F2400
G1 X132.713 Y90.873 E.02898
G1 X132.339 Y90.103 E.03253
G1 X132.147 Y89.293 E.03164
G1 X132.131 Y88.449 E.03208
G1 X132.296 Y87.621 E.03209
G1 X132.636 Y86.848 E.0321
G1 X133.134 Y86.167 E.03206
G1 X133.767 Y85.608 E.0321
G1 X134.476 Y85.212 E.03086
G1 X135.31 Y84.958 E.03313
G1 X136.157 Y84.895 E.03228
G1 X136.992 Y85.016 E.03207
G1 X137.782 Y85.314 E.03209
G1 X138.49 Y85.774 E.03209
G1 X139.082 Y86.376 E.03209
G1 X139.531 Y87.091 E.03209
G1 X139.815 Y87.886 E.03209
G1 X139.923 Y88.723 E.03207
G1 X139.847 Y89.564 E.03209
G1 X139.593 Y90.369 E.03208
G1 X139.172 Y91.1 E.03206
G1 X138.603 Y91.724 E.0321
G1 X137.913 Y92.211 E.0321
G3 X136.992 Y92.578 I-3.847 J-8.317 E.0377
G1 X136.305 Y92.691 E.02646
G1 X135.461 Y92.661 E.0321
G1 X134.643 Y92.451 E.0321
G3 X133.767 Y91.986 I3.812 J-8.248 E.03771
G1 X133.236 Y91.535 E.02648
G1 X133.223 Y91.518 E.00081
M204 P4000
G1 X133.223 Y91.518 F18000
G1 X133.562 Y91.212
M204 P500
;TYPE:External perimeter
G1 F2400
G1 X133.532 Y91.187 E.00148
G1 X133.077 Y90.596 E.02835
G1 X132.757 Y89.918 E.02849
G1 X132.593 Y89.195 E.02818
G1 X132.588 Y88.449 E.02835
G1 X132.743 Y87.719 E.02836
G1 X133.051 Y87.04 E.02834
G1 X133.498 Y86.443 E.02835
G1 X134.063 Y85.956 E.02835
G1 X134.691 Y85.616 E.02714
G1 X135.435 Y85.398 E.02947
G1 X136.181 Y85.352 E.02841
G1 X136.918 Y85.467 E.02835
G1 X137.613 Y85.738 E.02835
G1 X138.233 Y86.152 E.02833
G1 X138.75 Y86.69 E.02836
G1 X139.139 Y87.326 E.02833
G1 X139.382 Y88.032 E.02838
G1 X139.468 Y88.772 E.02831
G1 X139.393 Y89.514 E.02834
G1 X139.16 Y90.223 E.02836
G1 X138.78 Y90.865 E.02835
G1 X138.271 Y91.41 E.02834
G1 X137.657 Y91.833 E.02834
G1 X136.918 Y92.127 E.03023
G1 X136.231 Y92.24 E.02646
G1 X135.486 Y92.205 E.02835
G1 X134.766 Y92.01 E.02835
G1 X134.291 Y91.765 E.02031
G1 X134.063 Y91.638 E.00992
G1 X133.608 Y91.251 E.0227
M204 P4000
G1 X133.35 Y90.946 F18000
G1 E-.7 F2100
G1 X147.24 Y110.781 Z.623 F18000
G1 Z.2 F720
G1 E.7 F2100
M204 P500
;TYPE:Perimeter
G1 F2400
G3 X146.889 Y110.306 I3.546 J-2.989 E.02246
G1 X146.672 Y109.804 E.02079
G1 X146.559 Y109.295 E.01982
G1 X146.554 Y108.787 E.01931
G1 X146.662 Y108.223 E.02183
G1 X146.888 Y107.696 E.02179
G1 X147.223 Y107.229 E.02184
G1 X147.65 Y106.845 E.02183
G1 X148.149 Y106.563 E.02178
G1 X148.698 Y106.394 E.02183
G1 X149.27 Y106.346 E.02182
G1 X149.838 Y106.423 E.02179
G1 X150.377 Y106.621 E.02182
G1 X150.861 Y106.93 E.02182
G1 X151.267 Y107.335 E.0218
G1 X151.577 Y107.819 E.02184
G1 X151.775 Y108.357 E.02179
G1 X151.853 Y108.926 E.02183
G1 X151.807 Y109.498 E.02181
G1 X151.639 Y110.047 E.02182
G1 X151.357 Y110.547 E.02182
G1 X150.974 Y110.974 E.0218
G1 X150.508 Y111.31 E.02183
G1 X149.981 Y111.537 E.02181
G1 X149.418 Y111.645 E.02179
G1 X148.844 Y111.63 E.02182
G1 X148.287 Y111.492 E.02181
G1 X147.772 Y111.238 E.02182
G1 X147.325 Y110.879 E.02179
G3 X147.279 Y110.827 I3.461 J-3.087 E.00264
M204 P4000
G1 X147.279 Y110.827 F18000
G1 X147.615 Y110.519
M204 P500
;TYPE:External perimeter
G1 F2400
G1 X147.587 Y110.494 E.00143
G1 X147.303 Y110.113 E.01806
G1 X147.117 Y109.702 E.01715
G1 X147.011 Y109.201 E.01946
G1 X147.017 Y108.738 E.0176
G1 X147.124 Y108.274 E.0181
G1 X147.328 Y107.845 E.01805
G1 X147.621 Y107.47 E.01809
G1 X147.986 Y107.166 E.01805
G1 X148.409 Y106.948 E.01809
G1 X148.869 Y106.826 E.01809
G1 X149.344 Y106.806 E.01807
G1 X149.812 Y106.888 E.01806
G1 X150.252 Y107.069 E.01808
G1 X150.642 Y107.34 E.01805
G1 X150.966 Y107.689 E.0181
G1 X151.206 Y108.099 E.01806
G1 X151.353 Y108.551 E.01806
G1 X151.399 Y109.025 E.0181
G1 X151.342 Y109.497 E.01807
G1 X151.185 Y109.946 E.01808
G1 X150.936 Y110.35 E.01804
G1 X150.605 Y110.692 E.01809
G1 X150.208 Y110.954 E.01808
G1 X149.764 Y111.125 E.01808
G1 X149.294 Y111.197 E.01807
G1 X148.82 Y111.166 E.01805
G1 X148.363 Y111.034 E.01808
G1 X147.946 Y110.806 E.01806
G1 X147.66 Y110.558 E.01439
M204 P4000
G1 X147.407 Y110.248 F18000
G1 E-.7 F2100
G1 X121.251 Y105.872 Z.663 F18000
G1 X117.378 Y105.223 Z.723
G1 X113.504 Y104.575 Z.766
G1 X110.31 Y104.041 Z.788
G1 Z.2 F720
G1 E.7 F2100
M204 P500
;TYPE:Perimeter
G1 F2400
G1 X110.942 Y102.455 E.06489
G1 X111.732 Y100.974 E.06379
G1 X112.678 Y99.586 E.06384
G1 X113.717 Y98.363 E.06099
G1 X114.99 Y97.158 E.06662
G1 X116.329 Y96.145 E.06381
M73 P4 R9
G1 X117.769 Y95.283 E.06379
G1 X119.295 Y94.581 E.06384
G1 X120.887 Y94.049 E.06379
G1 X122.528 Y93.692 E.06383
G1 X124.198 Y93.514 E.06383
G1 X125.802 Y93.514 E.06096
G1 X127.472 Y93.692 E.06383
G1 X129.113 Y94.049 E.06383
G1 X130.705 Y94.581 E.06379
G1 X131.791 Y95.079 E.04541
G3 X132.712 Y95.568 I-2.404 J5.647 E.03968
G1 X133.671 Y96.145 E.04254
G1 X134.626 Y96.865 E.04546
G3 X135.458 Y97.576 I-3.703 J5.178 E.04165
G1 X136.283 Y98.363 E.04333
G1 X137.322 Y99.586 E.06099
G1 X138.306 Y101.037 E.06663
G1 X139.058 Y102.455 E.061
G1 X139.421 Y103.356 E.03692
G3 X139.919 Y104.847 I-8.521 J3.672 E.05982
G1 X140.136 Y105.63 E.03088
G1 X140.332 Y106.803 E.0452
G3 X140.462 Y108.142 I-7.902 J1.441 E.05119
G3 X140.482 Y109.493 I-8.378 J.798 E.05141
G1 X140.42 Y110.64 E.04366
G1 X140.152 Y112.297 E.06379
G1 X139.919 Y113.153 E.03372
G3 X139.421 Y114.644 I-9.003 J-2.176 E.05982
G1 X139.058 Y115.545 E.03692
G1 X138.268 Y117.026 E.06379
G1 X137.322 Y118.414 E.06384
G1 X136.283 Y119.637 E.06099
G1 X135.01 Y120.842 E.06662
G1 X133.733 Y121.814 E.06099
G1 X132.296 Y122.683 E.06382
G1 X130.705 Y123.419 E.06662
G1 X129.184 Y123.931 E.06099
G1 X127.545 Y124.296 E.06382
G1 X125.877 Y124.482 E.06379
G1 X124.198 Y124.486 E.06381
G1 X122.455 Y124.296 E.06664
G1 X120.887 Y123.951 E.06102
G1 X119.295 Y123.419 E.06379
G1 X117.704 Y122.683 E.06662
G1 X116.267 Y121.814 E.06382
G1 X114.99 Y120.842 E.06099
G1 X113.717 Y119.637 E.06662
G1 X112.633 Y118.355 E.06381
G1 X111.732 Y117.025 E.06106
G1 X110.942 Y115.545 E.06376
G1 X110.317 Y113.986 E.06384
G1 X109.864 Y112.37 E.06379
G1 X109.589 Y110.713 E.06384
G1 X109.529 Y109.683 E.03921
G3 X109.528 Y108.336 I7.958 J-.68 E.05126
G1 X109.572 Y107.513 E.03132
G1 X109.707 Y106.566 E.03636
G3 X109.989 Y105.182 I8.782 J1.068 E.05374
G1 X110.29 Y104.097 E.04279
M204 P4000
G1 X110.29 Y104.097 F18000
G1 X110.756 Y104.15
M204 P500
;TYPE:External perimeter
G1 F2400
G1 X110.977 Y103.591 E.02285
G1 X111.346 Y102.669 E.03774
G1 X112.098 Y101.252 E.06097
G1 X113.026 Y99.882 E.06289
G1 X114.065 Y98.659 E.06099
G1 X115.247 Y97.537 E.06194
G1 X116.564 Y96.536 E.06287
G1 X117.94 Y95.709 E.06102
G1 X119.418 Y95.023 E.06193
G1 X120.986 Y94.495 E.06288
G1 X122.577 Y94.146 E.06191
G1 X124.173 Y93.973 E.06101
G1 X125.802 Y93.971 E.06191
G1 X126.365 Y94.031 E.02152
G1 X127.423 Y94.146 E.04045
G1 X129.014 Y94.495 E.06191
G1 X130.559 Y95.014 E.06194
G1 X131.599 Y95.494 E.04353
G1 X132.06 Y95.709 E.01933
G1 X133.436 Y96.536 E.06102
G1 X134.753 Y97.537 E.06287
G1 X135.918 Y98.641 E.061
G1 X136.974 Y99.882 E.06193
G1 X137.902 Y101.252 E.06289
G1 X138.654 Y102.669 E.06097
G1 X138.996 Y103.525 E.03503
G3 X139.478 Y104.97 I-7.985 J3.467 E.05797
G1 X139.695 Y105.753 E.03088
G1 X139.962 Y107.373 E.0624
G1 X140.05 Y108.988 E.06147
G1 X140.004 Y109.864 E.03334
G3 X139.879 Y111.136 I-7.497 J-.093 E.04864
G1 X139.701 Y112.223 E.04186
G1 X139.478 Y113.03 E.03182
G3 X138.996 Y114.475 I-8.463 J-2.02 E.05797
G1 X138.654 Y115.331 E.03503
G1 X137.889 Y116.77 E.06194
G1 X136.989 Y118.098 E.06097
G1 X135.935 Y119.341 E.06194
G1 X134.734 Y120.479 E.06288
G1 X133.436 Y121.464 E.06193
G1 X132.06 Y122.291 E.06102
G1 X130.559 Y122.986 E.06287
G1 X129.038 Y123.498 E.06099
G1 X127.447 Y123.85 E.06193
G1 X125.827 Y124.027 E.06194
G1 X124.198 Y124.029 E.06191
G1 X122.553 Y123.85 E.06289
G1 X120.962 Y123.498 E.06193
G1 X119.441 Y122.986 E.06099
G1 X117.94 Y122.291 E.06287
G1 X116.564 Y121.464 E.06102
G1 X115.266 Y120.479 E.06193
G1 X114.065 Y119.341 E.06288
G1 X113.011 Y118.098 E.06194
G1 X112.11 Y116.769 E.06102
G1 X111.346 Y115.331 E.06189
G1 X110.742 Y113.817 E.06195
G1 X110.305 Y112.247 E.06194
G1 X110.04 Y110.639 E.06194
G1 X109.985 Y109.658 E.03734
G3 X109.984 Y108.361 I7.391 J-.654 E.04936
G1 X110.029 Y107.538 E.03133
G3 X110.299 Y105.777 I54.455 J7.466 E.06771
G1 X110.734 Y104.206 E.06195
M204 P4000
G1 X110.881 Y103.834 F18000
G1 E-.7 F2100
G1 X103.176 Y110.158 Z.374 F18000
G1 Z.2 F720
G1 E.7 F2100
M204 P500
;TYPE:Perimeter
G1 F2400
G1 X102.957 Y110.547 E.01697
G1 X102.574 Y110.974 E.0218
G1 X102.108 Y111.31 E.02183
G1 X101.581 Y111.537 E.02181
G1 X101.018 Y111.645 E.02179
G1 X100.444 Y111.63 E.02182
G1 X99.91 Y111.5 E.02089
G1 X99.377 Y111.24 E.02254
G1 X98.925 Y110.879 E.02199
G1 X98.565 Y110.431 E.02184
G1 X98.309 Y109.917 E.02182
G1 X98.17 Y109.361 E.02178
G1 X98.154 Y108.787 E.02182
G1 X98.262 Y108.223 E.02183
G1 X98.488 Y107.696 E.02179
G1 X98.823 Y107.229 E.02184
G1 X99.25 Y106.845 E.02183
G1 X99.749 Y106.563 E.02178
G1 X100.298 Y106.394 E.02183
G1 X100.87 Y106.346 E.02182
G1 X101.438 Y106.423 E.02179
G1 X101.977 Y106.621 E.02182
G1 X102.461 Y106.93 E.02182
G1 X102.867 Y107.335 E.0218
G1 X103.177 Y107.819 E.02184
G1 X103.375 Y108.357 E.02179
G1 X103.453 Y108.926 E.02183
G1 X103.411 Y109.473 E.02085
G1 X103.241 Y110.042 E.02257
G1 X103.205 Y110.105 E.00276
M204 P4000
G1 X103.205 Y110.105 F18000
G1 X102.8 Y109.903
M204 P500
;TYPE:External perimeter
G1 F2400
G1 X102.785 Y109.946 E.00173
G1 X102.536 Y110.35 E.01804
G1 X102.205 Y110.692 E.01809
G1 X101.808 Y110.954 E.01808
G1 X101.364 Y111.125 E.01808
G1 X100.894 Y111.197 E.01807
G1 X100.421 Y111.166 E.01802
G1 X99.986 Y111.042 E.01719
G1 X99.546 Y110.806 E.01898
G1 X99.187 Y110.494 E.01808
G1 X98.903 Y110.113 E.01806
G1 X98.708 Y109.679 E.01808
G1 X98.611 Y109.213 E.01809
G1 X98.611 Y108.787 E.01619
G1 X98.724 Y108.274 E.01996
G1 X98.929 Y107.845 E.01807
G1 X99.221 Y107.47 E.01806
G1 X99.586 Y107.166 E.01805
G1 X100.009 Y106.948 E.01809
G1 X100.469 Y106.826 E.01809
G1 X100.944 Y106.806 E.01807
G1 X101.5 Y106.923 E.02159
G1 X101.852 Y107.069 E.01448
G1 X102.242 Y107.34 E.01805
G1 X102.565 Y107.689 E.01807
G1 X102.806 Y108.099 E.01808
G1 X102.953 Y108.551 E.01806
G1 X102.999 Y109.024 E.01806
G1 X102.947 Y109.473 E.01718
G1 X102.819 Y109.846 E.01499
M204 P4000
G1 X102.627 Y110.197 F18000
G1 E-.7 F2100
G1 X125.62 Y96.984 Z.663 F18000
G1 X129.025 Y95.027 Z.723
G1 X132.431 Y93.07 Z.766
G1 X139.241 Y89.157 Z.8
G1 X153.41 Y81.015
G1 Z.2 F720
M73 P5 R9
G1 E.7 F2100
M204 P500
;TYPE:Solid infill
;WIDTH:0.500318
G1 F2400
G1 X152.691 Y80.296 E.03867
G1 X152.044 Y80.296 E.02461
G1 X153.204 Y81.456 E.06239
G1 X153.204 Y82.103 E.02461
G1 X151.397 Y80.296 E.09719
G1 X150.751 Y80.296 E.02457
G1 X153.204 Y82.749 E.13194
G1 X153.204 Y83.396 E.02461
G1 X150.104 Y80.296 E.16674
G1 X149.457 Y80.296 E.02461
G1 X153.204 Y84.043 E.20154
G1 X153.204 Y84.69 E.02461
G1 X148.81 Y80.296 E.23634
G1 X148.163 Y80.296 E.02461
G1 X153.204 Y85.337 E.27114
G1 X153.204 Y85.984 E.02461
G1 X147.516 Y80.296 E.30594
G1 X146.869 Y80.296 E.02461
G1 X153.204 Y86.631 E.34074
G1 X153.204 Y87.277 E.02457
G1 X146.223 Y80.296 E.37548
G1 X145.576 Y80.296 E.02461
G1 X153.204 Y87.924 E.41028
G1 X153.204 Y88.571 E.02461
G1 X144.929 Y80.296 E.44508
G1 X144.282 Y80.296 E.02461
G1 X153.204 Y89.218 E.47988
G1 X153.204 Y89.865 E.02461
G1 X143.635 Y80.296 E.51468
G1 X142.988 Y80.296 E.02461
G1 X153.204 Y90.512 E.54948
G1 X153.204 Y91.159 E.02461
G1 X142.341 Y80.296 E.58428
G1 X141.695 Y80.296 E.02457
G1 X153.204 Y91.805 E.61903
G1 X153.204 Y92.452 E.02461
G1 X141.048 Y80.296 E.65383
G1 X140.401 Y80.296 E.02461
M73 P6 R9
G1 X153.204 Y93.099 E.68863
G1 X153.204 Y93.746 E.02461
G1 X139.754 Y80.296 E.72343
G1 X139.107 Y80.296 E.02461
G1 X153.204 Y94.393 E.75823
G1 X153.204 Y95.04 E.02461
G1 X138.46 Y80.296 E.79303
G1 X137.813 Y80.296 E.02461
G1 X153.204 Y95.687 E.82783
G1 X153.204 Y96.333 E.02457
G1 X137.167 Y80.296 E.86257
G1 X136.52 Y80.296 E.02461
G1 X153.204 Y96.98 E.89737
G1 X153.204 Y97.627 E.02461
G1 X135.873 Y80.296 E.93217
G1 X135.226 Y80.296 E.02461
G1 X153.204 Y98.274 E.96697
G1 X153.204 Y98.921 E.02461
G1 X134.579 Y80.296 E1.00177
G1 X133.932 Y80.296 E.02461
M73 P7 R9
G1 X153.204 Y99.568 E1.03657
G1 X153.204 Y100.215 E.02461
G1 X139.825 Y86.835 E.71964
G2 X139.37 Y86.115 I-4.912 J2.601 E.03243
G2 X138.715 Y85.457 I-5.139 J4.463 E.03534
G2 X137.959 Y84.969 I-4.227 J5.717 E.03425
G1 X133.285 Y80.296 E.25137
G1 X132.639 Y80.296 E.02457
G1 X136.96 Y84.617 E.23241
G2 X136.206 Y84.51 I-1.24 J6.034 E.02898
G1 X131.992 Y80.296 E.22666
G1 X131.345 Y80.296 E.02461
G1 X135.591 Y84.541 E.22835
G2 X135.038 Y84.636 I-.007 J1.633 E.02145
G1 X130.698 Y80.296 E.23343
G1 X130.051 Y80.296 E.02461
G1 X134.532 Y84.776 E.24099
G2 X134.088 Y84.979 I.699 J2.122 E.0186
G1 X129.404 Y80.296 E.25191
G1 X128.757 Y80.296 E.02461
G1 X133.669 Y85.207 E.26417
G2 X133.305 Y85.491 I1.485 J2.276 E.01758
G1 X128.111 Y80.296 E.27939
G1 X127.464 Y80.296 E.02461
G1 X132.958 Y85.79 E.2955
G2 X132.664 Y86.143 I1.879 J1.861 E.01749
G1 X126.817 Y80.296 E.31449
